src/assets/pin-code-icon.svg

<svg width="16" height="17" viewBox="0 0 16 17" fill="none" xmlns="http://www.w3.org/2000/svg">
<path d="M13.166 14.3309H2.73255C2.27137 14.3309 1.82907 14.1477 1.50296 13.8215C1.17686 13.4954 0.993652 13.0531 0.993652 12.592V6.13319C0.993652 5.67201 1.17686 5.22971 1.50296 4.9036C1.82907 4.5775 2.27137 4.39429 2.73255 4.39429H9.19132C9.25721 4.39429 9.32039 4.42046 9.36698 4.46705C9.41357 4.51364 9.43974 4.57682 9.43974 4.6427C9.43974 4.70859 9.41357 4.77177 9.36698 4.81836C9.32039 4.86495 9.25721 4.89112 9.19132 4.89112H2.73255C2.40313 4.89112 2.08721 5.02198 1.85428 5.25491C1.62134 5.48785 1.49048 5.80377 1.49048 6.13319V12.592C1.49048 12.9214 1.62134 13.2373 1.85428 13.4702C2.08721 13.7032 2.40313 13.834 2.73255 13.834H13.166C13.4954 13.834 13.8113 13.7032 14.0442 13.4702C14.2772 13.2373 14.408 12.9214 14.408 12.592V7.87209C14.408 7.80621 14.4342 7.74302 14.4808 7.69643C14.5274 7.64985 14.5906 7.62368 14.6564 7.62368C14.7223 7.62368 14.7855 7.64985 14.8321 7.69643C14.8787 7.74302 14.9049 7.80621 14.9049 7.87209V12.592C14.9049 13.0531 14.7216 13.4954 14.3955 13.8215C14.0694 14.1477 13.6271 14.3309 13.166 14.3309ZM12.1723 12.8404C12.1064 12.8404 12.0432 12.8142 11.9966 12.7676C11.9501 12.721 11.9239 12.6578 11.9239 12.592V12.3212L11.7326 12.5125C11.6851 12.5532 11.624 12.5744 11.5614 12.572C11.4989 12.5696 11.4396 12.5437 11.3954 12.4994C11.3511 12.4552 11.3252 12.3959 11.3228 12.3334C11.3204 12.2709 11.3416 12.2097 11.3823 12.1622L11.5736 11.9709H11.3028C11.237 11.9709 11.1738 11.9448 11.1272 11.8982C11.0806 11.8516 11.0544 11.7884 11.0544 11.7225C11.0544 11.6566 11.0806 11.5934 11.1272 11.5469C11.1738 11.5003 11.237 11.4741 11.3028 11.4741H11.5736L11.3823 11.2828C11.3416 11.2353 11.3204 11.1742 11.3228 11.1116C11.3252 11.0491 11.3511 10.9898 11.3954 10.9456C11.4396 10.9013 11.4989 10.8754 11.5614 10.873C11.624 10.8706 11.6851 10.8919 11.7326 10.9326L11.9239 11.1238V10.8531C11.9239 10.7872 11.9501 10.724 11.9966 10.6774C12.0432 10.6308 12.1064 10.6046 12.1723 10.6046C12.2382 10.6046 12.3014 10.6308 12.348 10.6774C12.3945 10.724 12.4207 10.7872 12.4207 10.8531V11.1238L12.612 10.9326C12.6595 10.8919 12.7206 10.8706 12.7832 10.873C12.8457 10.8754 12.905 10.9013 12.9492 10.9456C12.9935 10.9898 13.0194 11.0491 13.0218 11.1116C13.0242 11.1742 13.0029 11.2353 12.9623 11.2828L12.771 11.4741H13.0417C13.1076 11.4741 13.1708 11.5003 13.2174 11.5469C13.264 11.5934 13.2902 11.6566 13.2902 11.7225C13.2902 11.7884 13.264 11.8516 13.2174 11.8982C13.1708 11.9448 13.1076 11.9709 13.0417 11.9709H12.771L12.9623 12.1622C13.0029 12.2097 13.0242 12.2709 13.0218 12.3334C13.0194 12.3959 12.9935 12.4552 12.9492 12.4994C12.905 12.5437 12.8457 12.5696 12.7832 12.572C12.7206 12.5744 12.6595 12.5532 12.612 12.5125L12.4207 12.3212V12.592C12.4207 12.6578 12.3945 12.721 12.348 12.7676C12.3014 12.8142 12.2382 12.8404 12.1723 12.8404ZM9.19132 12.8404C9.12544 12.8404 9.06225 12.8142 9.01567 12.7676C8.96908 12.721 8.94291 12.6578 8.94291 12.592V12.3212L8.75163 12.5125C8.70411 12.5532 8.64298 12.5744 8.58046 12.572C8.51794 12.5696 8.45863 12.5437 8.41439 12.4994C8.37015 12.4552 8.34423 12.3959 8.34182 12.3334C8.3394 12.2709 8.36067 12.2097 8.40137 12.1622L8.59265 11.9709H8.32187C8.25599 11.9709 8.1928 11.9448 8.14622 11.8982C8.09963 11.8516 8.07346 11.7884 8.07346 11.7225C8.07346 11.6566 8.09963 11.5934 8.14622 11.5469C8.1928 11.5003 8.25599 11.4741 8.32187 11.4741H8.59265L8.40137 11.2828C8.36067 11.2353 8.3394 11.1742 8.34182 11.1116C8.34423 11.0491 8.37015 10.9898 8.41439 10.9456C8.45863 10.9013 8.51794 10.8754 8.58046 10.873C8.64298 10.8706 8.70411 10.8919 8.75163 10.9326L8.94291 11.1238V10.8531C8.94291 10.7872 8.96908 10.724 9.01567 10.6774C9.06225 10.6308 9.12544 10.6046 9.19132 10.6046C9.25721 10.6046 9.32039 10.6308 9.36698 10.6774C9.41357 10.724 9.43974 10.7872 9.43974 10.8531V11.1238L9.63102 10.9326C9.67854 10.8919 9.73967 10.8706 9.80219 10.873C9.86471 10.8754 9.92401 10.9013 9.96826 10.9456C10.0125 10.9898 10.0384 11.0491 10.0408 11.1116C10.0432 11.1742 10.022 11.2353 9.98128 11.2828L9.79 11.4741H10.0608C10.1267 11.4741 10.1898 11.5003 10.2364 11.5469C10.283 11.5934 10.3092 11.6566 10.3092 11.7225C10.3092 11.7884 10.283 11.8516 10.2364 11.8982C10.1898 11.9448 10.1267 11.9709 10.0608 11.9709H9.79L9.98128 12.1622C10.022 12.2097 10.0432 12.2709 10.0408 12.3334C10.0384 12.3959 10.0125 12.4552 9.96826 12.4994C9.92401 12.5437 9.86471 12.5696 9.80219 12.572C9.73967 12.5744 9.67854 12.5532 9.63102 12.5125L9.43974 12.3212V12.592C9.43974 12.6578 9.41357 12.721 9.36698 12.7676C9.32039 12.8142 9.25721 12.8404 9.19132 12.8404ZM6.21035 12.8404C6.14447 12.8404 6.08128 12.8142 6.0347 12.7676C5.98811 12.721 5.96194 12.6578 5.96194 12.592V12.3212L5.77066 12.5125C5.74839 12.5385 5.72098 12.5596 5.69017 12.5745C5.65935 12.5894 5.62578 12.5978 5.59157 12.5991C5.55735 12.6004 5.52324 12.5947 5.49136 12.5822C5.45948 12.5697 5.43053 12.5507 5.40632 12.5265C5.38211 12.5023 5.36317 12.4734 5.35068 12.4415C5.33819 12.4096 5.33243 12.3755 5.33375 12.3413C5.33507 12.3071 5.34345 12.2735 5.35836 12.2427C5.37327 12.2119 5.39439 12.1845 5.42039 12.1622L5.61167 11.9709H5.3409C5.27502 11.9709 5.21183 11.9448 5.16525 11.8982C5.11866 11.8516 5.09249 11.7884 5.09249 11.7225C5.09249 11.6566 5.11866 11.5934 5.16525 11.5469C5.21183 11.5003 5.27502 11.4741 5.3409 11.4741H5.61167L5.42039 11.2828C5.39439 11.2605 5.37327 11.2331 5.35836 11.2023C5.34345 11.1715 5.33507 11.1379 5.33375 11.1037C5.33243 11.0695 5.33819 11.0354 5.35068 11.0035C5.36317 10.9716 5.38211 10.9427 5.40632 10.9185C5.43053 10.8943 5.45948 10.8753 5.49136 10.8628C5.52324 10.8504 5.55735 10.8446 5.59157 10.8459C5.62578 10.8472 5.65935 10.8556 5.69017 10.8705C5.72098 10.8854 5.74839 10.9065 5.77066 10.9326L5.96194 11.1238V10.8531C5.96194 10.7872 5.98811 10.724 6.0347 10.6774C6.08128 10.6308 6.14447 10.6046 6.21035 10.6046C6.27624 10.6046 6.33942 10.6308 6.38601 10.6774C6.43259 10.724 6.45877 10.7872 6.45877 10.8531V11.1238L6.65005 10.9326C6.67232 10.9065 6.69972 10.8854 6.73054 10.8705C6.76136 10.8556 6.79493 10.8472 6.82914 10.8459C6.86335 10.8446 6.89747 10.8504 6.92934 10.8628C6.96122 10.8753 6.99017 10.8943 7.01438 10.9185C7.03859 10.9427 7.05754 10.9716 7.07002 11.0035C7.08251 11.0354 7.08828 11.0695 7.08696 11.1037C7.08563 11.1379 7.07726 11.1715 7.06235 11.2023C7.04743 11.2331 7.02631 11.2605 7.00031 11.2828L6.80903 11.4741H7.0798C7.14569 11.4741 7.20887 11.5003 7.25546 11.5469C7.30204 11.5934 7.32822 11.6566 7.32822 11.7225C7.32822 11.7884 7.30204 11.8516 7.25546 11.8982C7.20887 11.9448 7.14569 11.9709 7.0798 11.9709H6.80903L7.00031 12.1622C7.02631 12.1845 7.04743 12.2119 7.06235 12.2427C7.07726 12.2735 7.08563 12.3071 7.08696 12.3413C7.08828 12.3755 7.08251 12.4096 7.07002 12.4415C7.05754 12.4734 7.03859 12.5023 7.01438 12.5265C6.99017 12.5507 6.96122 12.5697 6.92934 12.5822C6.89747 12.5947 6.86335 12.6004 6.82914 12.5991C6.79493 12.5978 6.76136 12.5894 6.73054 12.5745C6.69972 12.5596 6.67232 12.5385 6.65005 12.5125L6.45877 12.3212V12.592C6.45877 12.6578 6.43259 12.721 6.38601 12.7676C6.33942 12.8142 6.27624 12.8404 6.21035 12.8404ZM3.22938 12.8404C3.1635 12.8404 3.10031 12.8142 3.05373 12.7676C3.00714 12.721 2.98097 12.6578 2.98097 12.592V12.3212L2.78969 12.5125C2.74217 12.5532 2.68104 12.5744 2.61852 12.572C2.556 12.5696 2.49669 12.5437 2.45245 12.4994C2.40821 12.4552 2.38229 12.3959 2.37988 12.3334C2.37746 12.2709 2.39873 12.2097 2.43942 12.1622L2.6307 11.9709H2.35993C2.29405 11.9709 2.23086 11.9448 2.18428 11.8982C2.13769 11.8516 2.11152 11.7884 2.11152 11.7225C2.11152 11.6566 2.13769 11.5934 2.18428 11.5469C2.23086 11.5003 2.29405 11.4741 2.35993 11.4741H2.6307L2.43942 11.2828C2.39873 11.2353 2.37746 11.1742 2.37988 11.1116C2.38229 11.0491 2.40821 10.9898 2.45245 10.9456C2.49669 10.9013 2.556 10.8754 2.61852 10.873C2.68104 10.8706 2.74217 10.8919 2.78969 10.9326L2.98097 11.1238V10.8531C2.98097 10.7872 3.00714 10.724 3.05373 10.6774C3.10031 10.6308 3.1635 10.6046 3.22938 10.6046C3.29526 10.6046 3.35845 10.6308 3.40504 10.6774C3.45162 10.724 3.4778 10.7872 3.4778 10.8531V11.1238L3.66907 10.9326C3.7166 10.8919 3.77772 10.8706 3.84024 10.873C3.90276 10.8754 3.96207 10.9013 4.00631 10.9456C4.05055 10.9898 4.07647 11.0491 4.07889 11.1116C4.0813 11.1742 4.06004 11.2353 4.01934 11.2828L3.82806 11.4741H4.09883C4.16471 11.4741 4.2279 11.5003 4.27449 11.5469C4.32107 11.5934 4.34725 11.6566 4.34725 11.7225C4.34725 11.7884 4.32107 11.8516 4.27449 11.8982C4.2279 11.9448 4.16471 11.9709 4.09883 11.9709H3.82806L4.01934 12.1622C4.04534 12.1845 4.06646 12.2119 4.08137 12.2427C4.09628 12.2735 4.10466 12.3071 4.10598 12.3413C4.10731 12.3755 4.10154 12.4096 4.08905 12.4415C4.07656 12.4734 4.05762 12.5023 4.03341 12.5265C4.0092 12.5507 3.98025 12.5697 3.94837 12.5822C3.91649 12.5947 3.88238 12.6004 3.84817 12.5991C3.81396 12.5978 3.78039 12.5894 3.74957 12.5745C3.71875 12.5596 3.69134 12.5385 3.66907 12.5125L3.4778 12.3212V12.592C3.4778 12.6578 3.45162 12.721 3.40504 12.7676C3.35845 12.8142 3.29526 12.8404 3.22938 12.8404ZM9.68815 9.41474C9.63861 9.41485 9.59016 9.40015 9.54904 9.37251C9.51567 9.34996 9.48829 9.31964 9.46925 9.28415C9.45021 9.24867 9.44008 9.20908 9.43974 9.16881V7.84476C9.43848 7.79506 9.45329 7.74627 9.48197 7.70565L12.5946 3.04292L13.007 2.42685C13.0748 2.30886 13.1661 2.20605 13.2752 2.1248C13.3844 2.04355 13.5091 1.98558 13.6416 1.9545C13.774 1.92341 13.9115 1.91987 14.0454 1.94409C14.1793 1.96831 14.3068 2.01978 14.42 2.0953C14.5332 2.17082 14.6297 2.26879 14.7035 2.38313C14.7772 2.49747 14.8268 2.62575 14.8489 2.76001C14.8711 2.89428 14.8654 3.03166 14.8323 3.16365C14.7992 3.29564 14.7394 3.41942 14.6564 3.52732L11.1215 8.8111C11.0944 8.85333 11.0543 8.8856 11.0072 8.90301L9.78007 9.39984C9.75044 9.40976 9.7194 9.41479 9.68815 9.41474ZM9.93657 7.92426V8.80613L10.7538 8.47822L13.6951 4.07632L12.8703 3.52236L9.93657 7.92426ZM13.166 3.11744L13.9932 3.67141L14.2689 3.25904C14.3058 3.20293 14.3312 3.14011 14.3438 3.07416C14.3564 3.00821 14.3559 2.94043 14.3423 2.87469C14.3286 2.80895 14.3022 2.74653 14.2645 2.691C14.2268 2.63547 14.1785 2.58792 14.1223 2.55106C14.0662 2.51419 14.0034 2.48874 13.9375 2.47616C13.8715 2.46357 13.8037 2.4641 13.738 2.47771C13.6723 2.49132 13.6098 2.51775 13.5543 2.55548C13.4988 2.59321 13.4512 2.64151 13.4144 2.69762L13.166 3.11744Z" fill="#9390A0"/>
</svg>

<svg width="16" height="17" fill="none" xmlns="http://www.w3.org/2000/svg"><path d="M13.166 14.33H2.733a1.739 1.739 0 01-1.74-1.738V6.133a1.739 1.739 0 011.74-1.739H9.19a.248.248 0 110 .497H2.733A1.242 1.242 0 001.49 6.133v6.459a1.242 1.242 0 001.243 1.242h10.433a1.242 1.242 0 001.242-1.242v-4.72a.248.248 0 01.497 0v4.72a1.739 1.739 0 01-1.739 1.739zm-.994-1.49a.248.248 0 01-.248-.248v-.27l-.191.19a.248.248 0 01-.35-.35l.19-.191h-.27a.248.248 0 110-.497h.27l-.19-.191a.248.248 0 01.35-.35l.19.19v-.27a.249.249 0 01.498 0v.27l.191-.19a.248.248 0 01.35.35l-.191.191h.27a.248.248 0 010 .497h-.27l.191.191a.249.249 0 01-.35.35l-.191-.19v.27a.249.249 0 01-.249.248zm-2.98 0a.248.248 0 01-.25-.248v-.27l-.19.19a.248.248 0 01-.35-.35l.19-.191h-.27a.248.248 0 110-.497h.27l-.19-.191a.248.248 0 01.35-.35l.19.19v-.27a.248.248 0 11.498 0v.27l.191-.19a.249.249 0 01.35.35l-.191.191h.27a.248.248 0 010 .497h-.27l.191.191a.248.248 0 01-.35.35l-.191-.19v.27a.248.248 0 01-.249.248zm-2.982 0a.248.248 0 01-.248-.248v-.27l-.191.19a.248.248 0 11-.35-.35l.19-.191h-.27a.248.248 0 110-.497h.27l-.19-.191a.249.249 0 11.35-.35l.19.19v-.27a.248.248 0 11.498 0v.27l.191-.19a.247.247 0 01.364-.014.248.248 0 01-.014.364l-.191.191h.27a.248.248 0 010 .497h-.27l.191.191a.25.25 0 01-.07.42.249.249 0 01-.28-.07l-.191-.19v.27a.248.248 0 01-.249.248zm-2.98 0a.248.248 0 01-.249-.248v-.27l-.191.19a.248.248 0 01-.35-.35l.19-.191h-.27a.248.248 0 110-.497h.27l-.19-.191a.248.248 0 01.35-.35l.191.19v-.27a.248.248 0 11.497 0v.27l.191-.19a.249.249 0 01.35.35l-.19.191h.27a.248.248 0 010 .497h-.27l.19.191a.249.249 0 11-.35.35l-.191-.19v.27a.248.248 0 01-.249.248zm6.458-3.425a.248.248 0 01-.248-.246V7.845a.231.231 0 01.042-.14l3.113-4.662.412-.616a.994.994 0 111.65 1.1L11.12 8.811a.23.23 0 01-.114.092L9.78 9.4a.288.288 0 01-.092.015zm.249-1.49v.881l.817-.328 2.941-4.402-.825-.554-2.933 4.402zm3.229-4.808l.827.554.276-.412a.51.51 0 10-.855-.561l-.248.42z" fill="#9390A0"/></svg>
